X:5
T:2025-03-13.2
T:The house that moved
M:5/4
L:1/4
K:G
%% Strains 1-3 ar nice, but I'm not so keen on 4
dcBA2 | ABAFA | ABAFA | AB^cd2 :|
agf e2 | gfefd | GFEFd | agfd2 :|
[L:1/8]d2 cB A2 F2 A2| A2 cB A2 FG A2 | A2 cB A2 FG A2 | A2B2^c2d4 :|
d2 cB AG FE A2| A2 cB A2 FG A2 | A2 cB AG FG A2 | A2B2d^cd4 :|
a2g2f2 efg2 | fed2 edc4 | F2 G2 ABA F3 | a2g2fed4 :|
a2 gA fA e4 | G2F2E2F2d2 | a2g2f2g2e2 | G2F2E2D4 :|


